assets/icons/qvision/slow_motion_video.svg

<svg width="24" height="24" viewBox="0 0 24 24" fill="none" xmlns="http://www.w3.org/2000/svg">
<g clip-path="url(#clip0_147_1650)">
<path d="M13.05 9.79L9.99999 7.5V16.5L13.05 14.21L16 12L13.05 9.79ZM13.05 9.79L9.99999 7.5V16.5L13.05 14.21L16 12L13.05 9.79ZM13.05 9.79L9.99999 7.5V16.5L13.05 14.21L16 12L13.05 9.79ZM11 4.07V2.05C8.98999 2.25 7.15999 3.05 5.67999 4.26L7.09999 5.69C8.20999 4.83 9.53999 4.25 11 4.07ZM5.68999 7.1L4.25999 5.68C3.04999 7.16 2.24999 8.99 2.04999 11H4.06999C4.24999 9.54 4.82999 8.21 5.68999 7.1ZM4.06999 13H2.04999C2.24999 15.01 3.04999 16.84 4.25999 18.32L5.68999 16.89C4.82999 15.79 4.24999 14.46 4.06999 13ZM5.67999 19.74C7.15999 20.95 8.99999 21.75 11 21.95V19.93C9.53999 19.75 8.20999 19.17 7.09999 18.31L5.67999 19.74ZM22 12C22 17.16 18.08 21.42 13.05 21.95V19.93C16.97 19.41 20 16.05 20 12C20 7.95 16.97 4.59 13.05 4.07V2.05C18.08 2.58 22 6.84 22 12Z" fill="#323232"/>
</g>
<defs>
<clipPath id="clip0_147_1650">
<rect width="24" height="24" fill="white"/>
</clipPath>
</defs>
</svg>

<svg xmlns="http://www.w3.org/2000/svg" height="24" viewBox="0 0 24 24" width="24"><path d="M0 0h24v24H0V0z" fill="none"/><path d="M13.05 9.79L10 7.5v9l3.05-2.29L16 12zm0 0L10 7.5v9l3.05-2.29L16 12zm0 0L10 7.5v9l3.05-2.29L16 12zM11 4.07V2.05c-2.01.2-3.84 1-5.32 2.21L7.1 5.69c1.11-.86 2.44-1.44 3.9-1.62zM5.69 7.1L4.26 5.68C3.05 7.16 2.25 8.99 2.05 11h2.02c.18-1.46.76-2.79 1.62-3.9zM4.07 13H2.05c.2 2.01 1 3.84 2.21 5.32l1.43-1.43c-.86-1.1-1.44-2.43-1.62-3.89zm1.61 6.74C7.16 20.95 9 21.75 11 21.95v-2.02c-1.46-.18-2.79-.76-3.9-1.62l-1.42 1.43zM22 12c0 5.16-3.92 9.42-8.95 9.95v-2.02C16.97 19.41 20 16.05 20 12s-3.03-7.41-6.95-7.93V2.05C18.08 2.58 22 6.84 22 12z"/></svg>
